X:1
T:For God So Loved - Tun
T:For God So Loved - Tun
T:Scott Werdebaugh, 2018
T:John 
T:Copyright © 2018 by Scott Werdebaugh and New Heart Music - May copy and use freely for Christian worship and devotion with no alterations. All other rights remain reserved.
T:Copyright © 2018 by Scott Werdebaugh and New Heart Music - May copy and use freely for Christian worship and devotion with no alterations. All other rights remain reserved.
T:Copyright © 2018 by Scott Werdebaugh and New Heart Music - May copy and use freely for Christian worship and devotion with no alterations. All other rights remain reserved.
C:Scott Werdebaugh, 2018
Z:Copyright © 2018 by Scott Werdebaugh and New Heart Music - May copy and use freely for
Z:Christian worship and devotion with no alterations. All other rights remain reserved.
%%score 1 2 ( 3 4 ) ( 5 6 )
L:1/8
Q:1/4=98
M:4/4
K:C
V:1 treble 
V:2 bass 
V:3 treble 
V:4 treble 
V:5 bass 
V:6 bass 
V:1
"^Reflectively and meditatively" E2 | c4- cc BA | B4 z2 GG | A3 A G2 FF | G3 G E3 E | A4 BB B2 | %6
w: For|God * so loved the|world that He|gave His on- ly be-|got- ten Son, that|who- ev- er be-|
 c2 c2 G4 | A4 c4 | c4 B2 z B | c2 cd e2 d2 | c4 z2 E2 || c2 cA G2 E2 | A4- AA GA | G4 A2 B2 | %14
w: lieves in Him|should not|per- ish but|have ev- er- last- ing|life. For|God did not send His|Son * in- to the|world to con-|
 c2 (BA) G2 (3GAB | c4- c2 (cd) | e4 d2 d2 | c6 z2 || c3- c BB AG | A2 (AB) c2 A2 | G4 z2 G2 | %21
w: demn the * world, but that the|world * through *|Him might be|saved.|He * who be- lieves in|Him is * not con-|demned; but|
 A3 A A2 BB | c2 GG A2 c2 | (c3 B) B3 !breath!B | c2 c2 B2 AA | G2 EG A2 cc | B2 GG A2 c2 | d4 B4 | %28
w: he who does not be-|lieve is con- demned al-|read- * y, be-|cause he has not be-|lieved in the name of the|on- ly be- got- ten|Son of|
 c6 z2 || c2 BB A2 GG | A2 (Bc) d2 (cB) | c2 B2 c3 z | c2 BB A2 GG | A4 (G2 F2) | G4 A2 B2 | %35
w: God.|He who be- lieves in the|Son has * ev- er- *|last- ing life,|and he who does not be-|lieve the *|Son shall not|
 (c4 A4) | G4 z2 GG | A4 (G2 F2) | G4 (G2 c2) | (d4- dc) B2 | c6 |] %41
w: see *|life, but the|wrath of *|God a- *|bides * * on|him.|
V:2
 G,2 | E,4- E,E, G,E, | D,4 z2 E,E, | F,3 F, E,2 A,A, | B,3 B, G,3 G, | F,4 G,G, G,2 | %6
 G,2 G,2 E,4 | F,4 G,4 | E,4 D,2 z D, | E,2 E,F, G,2 F,2 | E,4 z2 G,2 || G,2 G,F, E,2 G,2 | %12
 F,4- F,F, E,F, | D,4 F,2 G,2 | F,2 (G,F,) E,2 (3E,F,G, | E,4- E,2 (E,F,) | G,4 F,2 F,2 | E,6 z2 || %18
 E,3- E, D,D, F,E, | F,2 (F,G,) E,2 F,2 | E,4 z2 E,2 | F,3 F, F,2 G,G, | E,2 E,E, F,2 A,2 | %23
 (A,3 G,) G,3 !breath!G, | A,2 A,2 G,2 F,F, | E,2 G,B, C2 G,G, | G,2 B,B, C2 A,2 | G,4 F,4 | %28
 E,6 z2 || E,2 G,G, F,2 E,E, | F,2 (G,E,) B,2 (A,G,) | E,2 F,2 E,3 z | E,2 G,G, F,2 E,E, | %33
 F,4 (E,2 D,2) | E,4 F,2 G,2 | (A,4 F,4) | E,4 z2 E,E, | F,4 (B,2 A,2) | B,4 (B,2 G,2) | %39
 (B,4- B,G,) D,2 | E,6 |] %41
V:3
 [CE]2 | [Ec]4- [Ec][Ec] [GB][FA] | [DB]4 z2 [EG][EG] | [CA]3 [CA] [EG]2 [CF][CF] | %4
 [DG]3 [DG] [CE]3 [CE] | [CA]4 [DB][DB] [FB]2 | [Ec]2 [Ec]2 [EG]4 | [CA]4 [Ec]4 | %8
 [Ec]4 [DB]2 z [DB] | [Ec]2 [Ec][Fd] [Ge]2 [Fd]2 | [Ec]4 z2 [CE]2 || [Ec]2 [Ec][FA] [EG]2 [CE]2 | %12
 [CA]4- [CA][CA] [DG][CA] | [DG]4 [CA]2 [DB]2 | [Fc]2 [DB][CA] [EG]2 (3[EG][FA][FB] | %15
 [Ec]4- [Ec]2 ([Ec][Fd]) | [Ge]4 [Fd]2 [Fd]2 | [Ec]6 z2 || [Ec]3- [Ec] [DB][DB] [CA][EG] | %19
 [FA]2 (AB) [Ec]2 [CA]2 | [EG]4 z2 [EG]2 | [CA]3 [CA] [CA]2 [DB][DB] | [Ec]2 [EG][EG] [CA]2 [Fc]2 | %23
 ([Fc]3 [DB]) [DB]3 !breath![DB] | [Fc]2 [Fc]2 [DB]2 [CA][CA] | [EG]2 [CE][DG] [FA]2 [Ec][Ec] | %26
 [DB]2 [DG][DG] [CA]2 [Fc]2 | [Gd]4 [DB]4 | [Ec]6 z2 || [Ec]2 [DB][DB] [CA]2 [EG][EG] | %30
 [CA]2 ([DB][Ec]) [Fd]2 ([Ec][DB]) | [Ec]2 [DB]2 [Ec]3 z | [Ec]2 [DB][DB] [CA]2 [EG][EG] | %33
 [CA]4 ([EG]2 [DF]2) | [EG]4 [CA]2 [DB]2 | ([Fc]4 [CA]4) | [EG]4 z2 [EG][EG] | %37
 [CA]4 ([DG]2 [CF]2) | [DG]4 ([DG]2 [Ec]2) | ([Fd]4- [Fd][Ec]) [DB]2 | [Ec]6 |] %41
V:4
 x2 | x8 | x8 | x8 | x8 | x8 | x8 | x8 | x8 | x8 | x8 || x8 | x8 | x8 | x8 | x8 | x8 | x8 || x8 | %19
 x2 F2 x4 | x8 | x8 | x8 | x8 | x8 | x8 | x8 | x8 | x8 || x8 | x8 | x8 | x8 | x8 | x8 | x8 | x8 | %37
 x8 | x8 | x8 | x6 |] %41
V:5
 [C,G,]2 | [C,G,]4- [C,G,][C,G,] [D,G,][C,F,] | [G,,G,]4 z2 [C,C][C,C] | %3
 [F,A,]3 [F,A,] [C,C]2 [F,A,][F,A,] | [G,B,]3 [G,B,] [C,G,]3 [C,G,] | %5
 [F,A,]4 [G,,G,][G,,G,] [D,G,]2 | [C,G,]2 [C,G,]2 [C,C]4 | [F,A,]4 [C,G,]4 | %8
 [A,,A,]4 [G,,G,]2 z [G,,G,] | [C,G,]2 [C,G,][G,,B,] [C,C]2 [G,,B,]2 | [C,G,]4 z2 [C,G,]2 || %11
 [C,G,]2 [C,G,][C,F,] [C,C]2 [C,G,]2 | [F,A,]4- [F,A,][F,A,] [G,B,][F,A,] | %13
 [G,B,]4 [F,A,]2 [G,B,]2 | [F,A,]2 [G,B,][F,A,] [C,C]2 (3[C,C][F,C][G,D] | [G,C]4- [G,C]2 A,2 | %16
 [C,C]4 [G,,B,]2 [G,,B,]2 | [C,G,]6 z2 || [C,G,]3- [C,G,] [G,,G,][G,,G,] [F,,A,][C,C] | %19
 [F,C]2 (CD) [G,C]2 [F,A,]2 | [C,C]4 z2 [C,G,]2 | [F,A,]3 [F,A,] [F,A,]2 [G,,G,][G,,G,] | %22
 [C,G,]2 [C,C][C,C] [F,,A,]2 [F,,A,]2 | ([F,,A,]3 [G,,G,]) [G,,G,]3 !breath![G,,G,] | %24
 [F,,A,]2 [F,,A,]2 [G,,G,]2 [F,,F,][F,,F,] | [C,C]2 [C,G,][G,B,] [F,C]2 [C,G,][C,G,] | %26
 [G,,G,]2 [G,,B,][G,,B,] [F,,F,]2 [F,,A,]2 | [G,,B,]4 [G,,G,]4 | [C,G,]6 z2 || %29
 [C,G,]2 [G,,G,][G,,G,] [F,,A,]2 [C,C][C,C] | [F,,A,]2 G,2 [G,,B,]2 G,2 | %31
 [C,G,]2 [G,,G,]2 [C,G,]3 z | [C,G,]2 [G,,G,][G,,G,] [F,,A,]2 [C,C][C,C] | [F,A,]4 [C,C]2 [G,B,]2 | %34
 [C,C]4 [F,A,]2 [G,,G,]2 | [F,,A,]8 | [C,C]4 z2 [C,C][C,C] | [F,A,]4 ([G,B,]2 [F,A,]2) | %38
 [G,,B,]4 ([G,,B,]2 [C,G,]2) | ([G,,B,]4- [G,,B,][C,G,]) [G,,F,]2 | [C,G,]6 |] %41
V:6
 x2 | x8 | x8 | x8 | x8 | x8 | x8 | x8 | x8 | x8 | x8 || x8 | x8 | x8 | x8 | x6 (E,F,) | x8 | x8 || %18
 x8 | x2 F,2 x4 | x8 | x8 | x8 | x8 | x8 | x8 | x8 | x8 | x8 || x8 | x2 (G,,C,) x (C,G,,) x | x8 | %32
 x8 | x8 | x8 | x8 | x8 | x8 | x8 | x8 | x6 |] %41

